assets/icons/vscom/bar-chart.svg

<svg xmlns="http://www.w3.org/2000/svg" viewBox="0 0 1000 1000" enable-background="new 0 0 1000 1000"><path d="M937.5 937.5h-875v-875h62.5v812.5h812.5v62.5zm-687.5-625h-62.5v500h62.5v-500zm125 62.5h-62.5v437.5h62.5v-437.5zm125-312.5h-62.5v750h62.5v-750zm125 125h-62.5v625h62.5v-625zm125 312.5h-62.5v312.5h62.5v-312.5zm125-125h-62.5v437.5h62.5v-437.5z"/></svg>

<?xml version="1.0" encoding="utf-8"?>
<!-- Generator: Adobe Illustrator 19.1.0, SVG Export Plug-In . SVG Version: 6.00 Build 0)  -->
<svg version="1.1" xmlns="http://www.w3.org/2000/svg" xmlns:xlink="http://www.w3.org/1999/xlink" x="0px" y="0px"
	 viewBox="0 0 1000 1000" enable-background="new 0 0 1000 1000" xml:space="preserve">
<path id="outline" d="M937.5,937.5h-875v-875H125V875h812.5V937.5z M250,312.5h-62.5v500H250V312.5z M375,375h-62.5v437.5H375V375z
	 M500,62.5h-62.5v750H500V62.5z M625,187.5h-62.5v625H625V187.5z M750,500h-62.5v312.5H750V500z M875,375h-62.5v437.5H875V375z"/>
<g>
</g>
<g>
</g>
<g>
</g>
<g>
</g>
<g>
</g>
<g>
</g>
</svg>
